X:30
T:Reel 30
M:4/4
K:Gmaj
L:1/8
ge|d>B (3BBB dBGB|ec'ab g2ge|d>B (3BAB dBGB|A>GAB AGe2ed|BddB GBde|dBGB d2gd|eeed BABd|egfa g2|d2|c2ec B2dB|A>G (3AGA e2dB|GcBA G2f2|edef g2B2|e>B (3BAB g>B (3BAB |e>A (3AGA e2dB|G2GA BGdB|AGAB G2|
